X: 21401
T: Annon side
%R: air, strathspey
B: James Oswald "The Caledonian Pocket Companion" v.2 p.140 #1
Z: 2018 John Chambers <jc:trillian.mit.edu>
M: C
L: 1/8
K: Em
|: "_Slow"\
g2 Tf>e B2 e>f | g2 (b/a/g) Tg2 f2 |\
b2 B2 (ec')(ba) | g2 Tf>e e4 ::\
d3B (cd)(ef) | (g<e) (d<B) TA2 G>A |
B2 e2 de/f/ {a}g(f/e/) | (d<B) TA>G G3 A |\
B2 e>d T^c2 f>g | (af)(ge) {e}f2 g>a |\
b2B2 (ec')(ba) | (b<g) Tf>e e4 :|


